icons/Finance/price-tag-2-line.svg

<svg viewBox="0 0 24 24" xmlns="http://www.w3.org/2000/svg"><path d="M3.00488 6.99981L11.4502 1.36961C11.7861 1.14568 12.2237 1.14568 12.5596 1.36961L21.0049 6.99981V20.9998C21.0049 21.5521 20.5572 21.9998 20.0049 21.9998H4.00488C3.4526 21.9998 3.00488 21.5521 3.00488 20.9998V6.99981ZM5.00488 8.07018V19.9998H19.0049V8.07018L12.0049 3.40351L5.00488 8.07018ZM8.00488 15.9998H16.0049V17.9998H8.00488V15.9998ZM8.00488 12.9998H16.0049V14.9998H8.00488V12.9998ZM12.0049 10.9998C10.9003 10.9998 10.0049 10.1044 10.0049 8.99981C10.0049 7.89524 10.9003 6.99981 12.0049 6.99981C13.1095 6.99981 14.0049 7.89524 14.0049 8.99981C14.0049 10.1044 13.1095 10.9998 12.0049 10.9998Z"/></svg>

<svg xmlns="http://www.w3.org/2000/svg" viewBox="0 0 24 24">
    <g>
        <path fill="none" d="M0 0h24v24H0z"/>
        <path d="M3 7l8.445-5.63a1 1 0 0 1 1.11 0L21 7v14a1 1 0 0 1-1 1H4a1 1 0 0 1-1-1V7zm2 1.07V20h14V8.07l-7-4.666L5 8.07zM8 16h8v2H8v-2zm0-3h8v2H8v-2zm4-2a2 2 0 1 1 0-4 2 2 0 0 1 0 4z"/>
    </g>
</svg>
